storage/app/icons/phosphoricons/fill/dice-four-fill.svg

<svg xmlns="http://www.w3.org/2000/svg" fill="currentColor" viewBox="0 0 256 256"><path d="M192 32H64a32 32 0 0 0-32 32v128a32 32 0 0 0 32 32h128a32 32 0 0 0 32-32V64a32 32 0 0 0-32-32m-92 136a12 12 0 1 1 12-12 12 12 0 0 1-12 12m0-56a12 12 0 1 1 12-12 12 12 0 0 1-12 12m56 56a12 12 0 1 1 12-12 12 12 0 0 1-12 12m0-56a12 12 0 1 1 12-12 12 12 0 0 1-12 12"/></svg>

<svg xmlns="http://www.w3.org/2000/svg" viewBox="0 0 256 256" fill="currentColor"><path d="M192,32H64A32,32,0,0,0,32,64V192a32,32,0,0,0,32,32H192a32,32,0,0,0,32-32V64A32,32,0,0,0,192,32ZM100,168a12,12,0,1,1,12-12A12,12,0,0,1,100,168Zm0-56a12,12,0,1,1,12-12A12,12,0,0,1,100,112Zm56,56a12,12,0,1,1,12-12A12,12,0,0,1,156,168Zm0-56a12,12,0,1,1,12-12A12,12,0,0,1,156,112Z"/></svg>
